!!!OTL: DER ABT IST NICHT ZU HAUSE
!!!ARE: Europa, Mitteleuropa, Deutschland, Thueringen
!!!SCT: K2562A
!!!YEM: Copyright 1995, estate of Helmut Schaffrath.
**kern
*ICvox
*Ivox
*M2/4
*k[f#]
*G:
{8d
=1
8g
8g
8g
8g
=2
4g
8d}
{8d
=3
8b
8b
8b
8b
=4
4b
8g
8r}
=5
{8dd
8dd
8dd
8ee
=6
8dd
8cc
4cc}
=7
{8b
8b
8b
8cc
=8
8b
8a
4g}
==
!!!AGN: Kinder - Lied, Gesellschafts - Spiel
!!!ONB: ESAC (Essen Associative Code) Database: KINDER
!!!AMT: simple duple
!!!AIN: vox
!!!EED: Helmut Schaffrath
!!!EEV: 1.0
*-
